React/src/assets/images/backend/firebase.svg

<svg width="130" height="130" viewBox="0 0 130 130" fill="none" xmlns="http://www.w3.org/2000/svg">
<path d="M105.024 98.7835L68.5029 119.045C66.0015 120.346 63.5001 120.346 60.9987 119.045L24.9784 98.7835L90.2654 32.9981L92.0164 32.4978C93.5173 32.4978 94.3677 33.1482 94.5178 34.4989L105.024 98.7839L105.024 98.7835ZM51.7441 33.9952L28.9811 71.7667L38.4862 11.9829C38.6363 10.6322 39.4868 9.98181 40.9876 9.98181C41.9882 9.98181 42.6386 10.282 42.9888 11.2325L53.7447 30.9936L51.7435 33.9953L51.7441 33.9952ZM74.2563 40.2987L26.4796 88.2757L62.7502 26.7424C63.2505 25.7418 64.0009 25.2916 65.0015 25.2916C66.002 25.2916 66.6524 25.7418 67.0026 26.7424L74.2563 40.2987Z" fill="#FBC02D"/>
</svg>

<svg width="130" height="130" fill="none" xmlns="http://www.w3.org/2000/svg"><path d="M105.024 98.784l-36.521 20.261c-2.502 1.301-5.003 1.301-7.504 0l-36.02-20.261 65.286-65.786 1.751-.5c1.501 0 2.352.65 2.502 2l10.506 64.286zm-53.28-64.789L28.981 71.767l9.505-59.784c.15-1.35 1-2.001 2.502-2.001 1 0 1.65.3 2 1.25l10.757 19.762-2.002 3.001h.001zM74.256 40.3L26.48 88.276l36.27-61.534c.5-1 1.25-1.45 2.251-1.45s1.651.45 2.002 1.45L74.256 40.3z" fill="#FBC02D"/></svg>
